X: 21283
T: Kelly's
R: polka
M: 2/4
K: Amajor
|:EA Ac|Be c2|eA Ac|B/c/B/A/ FE|
A>A FE|Ac ea|f>f ec|1 BA AF:|2 BA ag||
|:f2 df|ba af|e2 ce|fe c/B/A|
B>B GB|cB e2|ec cB|1 BA ag:|2 BA AF||

